Origami/16x16/apps/kdeconnect.svg

<svg width="16" height="16" version="1" xmlns="http://www.w3.org/2000/svg">
 <path d="m14 14.2v-13.399838c0-0.4432-0.3345-0.8000001-0.75-0.8000001h-9.49975c-0.4155 0-0.75 0.3568001-0.75 0.8000001v13.399838c0 0.4432 0.3345 0.8 0.75 0.8h9.49975c0.4155 0 0.75-0.3568 0.75-0.8z" style="fill:#8e8e8e"/>
 <path d="m4.7695 1.0001615h7.46175c0.426 0 0.769 0.4117097 0.769 0.9230769v9.1539846c0 0.511187-0.343 0.922777-0.769 0.922777h-7.46175c-0.4259 0-0.769-0.41159-0.769-0.922777v-9.1533845c0-0.5116672 0.3431-0.923377 0.76925-0.923377z" style="opacity:.5"/>
 <path d="m8.21875 3c-0.1211875 0-0.21875 0.223-0.21875 0.5v3c0 0.277 0.0975625 0.5 0.21875 0.5h0.5625c0.1211875 0 0.21875-0.223 0.21875-0.5v-0.75l0.0195312-0.0234375 1.0332028 1.0332031c0.195869 0.1958686 0.42212 0.2849113 0.507813 0.1992188l0.398437-0.3984375c0.08569-0.085693-0.0033-0.3119439-0.199218-0.5078125l-1.0527348-1.0527344 1.0527348-1.0527344c0.195918-0.1958686 0.284908-0.4221195 0.199218-0.5078125l-0.398437-0.3984375c-0.085693-0.0856925-0.311944 0.0033502-0.507813 0.1992188l-1.0332028 1.0332031-0.0195312-0.0234375v-0.75c0-0.277-0.097563-0.5-0.21875-0.5h-0.5625zm-1.7734375 0.7929688c-0.1089661-0.0019271-0.2730205 0.0855204-0.4199219 0.2324218-0.1958686 0.1958685-0.2849112 0.42212-0.1992187 0.5078125l0.5898437 0.5898438c-0.1766749 0.2662876-0.3006576 0.5639787-0.3652344 0.8769531h-0.8320312c-0.1211875 0-0.21875 0.223-0.21875 0.5s0.0975625 0.5 0.21875 0.5h0.8359375c0.06338 0.3126963 0.1860296 0.6103702 0.3613281 0.8769531l-0.5898437 0.5898438c-0.085692 0.085693 0.00335 0.311944 0.1992187 0.5078125 0.1958685 0.1958686 0.42212 0.2849107 0.5078125 0.1992187l0.5898438-0.5898437c0.2662876 0.1766749 0.5639787 0.3006576 0.8769531 0.3652344v0.8320312c0 0.121187 0.223 0.21875 0.5 0.21875s0.5-0.097563 0.5-0.21875v-0.8359375c0.3126963-0.06338 0.6103702-0.1860296 0.8769531-0.3613281l0.5898439 0.5898437c0.08569 0.08569 0.311944-0.0033001 0.507812-0.1992187 0.195869-0.1958685 0.284911-0.4221203 0.199219-0.5078125l-0.589844-0.5898438c0.158037-0.2395168 0.273658-0.504454 0.341797-0.7832031l-0.365234 0.3652344c-0.08569 0.085693-0.311944-0.00335-0.507813-0.1992188l-0.1757809-0.1757812c-0.2340032 0.5536378-0.7758968 0.9141315-1.3769531 0.9160156-0.8284271 0-1.5-0.6715729-1.5-1.5 0.0013491-0.4251864 0.1830812-0.8298243 0.5-1.1132812v-1.171875c-0.1311617 0.0561772-0.2572732 0.1234802-0.3769531 0.2011718l-0.5898438-0.5898437c-0.0214231-0.0214232-0.0515686-0.032561-0.0878906-0.0332031z" style="fill:#ffffff"/>
</svg>

<svg xmlns="http://www.w3.org/2000/svg" width="16" height="16" version="1">
 <path style="fill:#8e8e8e" d="M 14,14.2 14,0.8001616 C 14,0.3569616 13.6655,1.615e-4 13.25,1.615e-4 l -9.49975,0 c -0.4155,0 -0.75,0.3568001 -0.75,0.8000001 l 0,13.3998384 c 0,0.4432 0.3345,0.8 0.75,0.8 L 13.25,15 C 13.6655,15 14,14.6432 14,14.2 Z"/>
 <path style="opacity:0.5" d="m 4.7695,1.0001615 7.46175,0 c 0.426,0 0.769,0.4117097 0.769,0.9230769 l 0,9.1539846 C 13.00025,11.58841 12.65725,12 12.23125,12 L 4.7695,12 c -0.4259,0 -0.769,-0.41159 -0.769,-0.922777 l 0,-9.1533845 c 0,-0.5116672 0.3431,-0.923377 0.76925,-0.923377 z"/>
 <path style="fill:#ffffff" d="M 8.21875 3 C 8.0975625 3 8 3.223 8 3.5 L 8 6.5 C 8 6.777 8.0975625 7 8.21875 7 L 8.78125 7 C 8.9024375 7 9 6.777 9 6.5 L 9 5.75 L 9.0195312 5.7265625 L 10.052734 6.7597656 C 10.248603 6.9556342 10.474854 7.0446769 10.560547 6.9589844 L 10.958984 6.5605469 C 11.044674 6.4748539 10.955684 6.248603 10.759766 6.0527344 L 9.7070312 5 L 10.759766 3.9472656 C 10.955684 3.751397 11.044674 3.5251461 10.958984 3.4394531 L 10.560547 3.0410156 C 10.474854 2.9553231 10.248603 3.0443658 10.052734 3.2402344 L 9.0195312 4.2734375 L 9 4.25 L 9 3.5 C 9 3.223 8.902437 3 8.78125 3 L 8.21875 3 z M 6.4453125 3.7929688 C 6.3363464 3.7910417 6.172292 3.8784892 6.0253906 4.0253906 C 5.829522 4.2212591 5.7404794 4.4475106 5.8261719 4.5332031 L 6.4160156 5.1230469 C 6.2393407 5.3893345 6.115358 5.6870256 6.0507812 6 L 5.21875 6 C 5.0975625 6 5 6.223 5 6.5 C 5 6.777 5.0975625 7 5.21875 7 L 6.0546875 7 C 6.1180675 7.3126963 6.2407171 7.6103702 6.4160156 7.8769531 L 5.8261719 8.4667969 C 5.7404799 8.5524899 5.8295219 8.7787409 6.0253906 8.9746094 C 6.2212591 9.170478 6.4475106 9.2595201 6.5332031 9.1738281 L 7.1230469 8.5839844 C 7.3893345 8.7606593 7.6870256 8.884642 8 8.9492188 L 8 9.78125 C 8 9.902437 8.223 10 8.5 10 C 8.777 10 9 9.902437 9 9.78125 L 9 8.9453125 C 9.3126963 8.8819325 9.6103702 8.7592829 9.8769531 8.5839844 L 10.466797 9.1738281 C 10.552487 9.2595181 10.778741 9.170528 10.974609 8.9746094 C 11.170478 8.7787409 11.25952 8.5524891 11.173828 8.4667969 L 10.583984 7.8769531 C 10.742021 7.6374363 10.857642 7.3724991 10.925781 7.09375 L 10.560547 7.4589844 C 10.474857 7.5446774 10.248603 7.4556344 10.052734 7.2597656 L 9.8769531 7.0839844 C 9.6429499 7.6376222 9.1010563 7.9981159 8.5 8 C 7.6715729 8 7 7.3284271 7 6.5 C 7.0013491 6.0748136 7.1830812 5.6701757 7.5 5.3867188 L 7.5 4.2148438 C 7.3688383 4.271021 7.2427268 4.338324 7.1230469 4.4160156 L 6.5332031 3.8261719 C 6.51178 3.8047487 6.4816345 3.7936109 6.4453125 3.7929688 z"/>
</svg>
